OFDR/img/icons/social/viber.svg

<svg width="19" height="19" viewBox="0 0 19 19" fill="none" xmlns="http://www.w3.org/2000/svg">
<path d="M17.0789 2.12558C15.4992 0.653148 12.9453 -0.0603014 9.48679 0.00398691C5.9995 0.069196 3.66841 0.651139 2.15077 1.83545C0.683408 2.98042 0 4.65585 0 7.10809V9.61082C0 12.5058 1.63166 15.6885 4.75013 16.1701C5.11015 16.2261 5.4493 15.9934 5.50776 15.651C5.56622 15.3088 5.32181 14.9863 4.96179 14.9307C2.59681 14.5654 1.32068 11.9172 1.32068 9.61082V7.10809C1.32068 3.59183 2.6911 1.38685 9.51268 1.25928C12.6053 1.20102 14.8374 1.7946 16.1542 3.0221C17.1804 3.97881 17.6792 5.3153 17.6792 7.10809V9.61082C17.6792 13.4006 15.8901 15.0722 11.3011 15.5644H8.04716C7.87204 15.5644 7.70405 15.6306 7.58026 15.7483L5.28747 17.9282C5.02959 18.1734 5.02959 18.5709 5.28747 18.8161C5.41637 18.9386 5.58542 19 5.75438 19C5.92334 19 6.09238 18.9387 6.22128 18.8161L8.32072 16.8201H11.338C11.3623 16.8201 11.3867 16.8188 11.4109 16.8162C14.0372 16.5389 15.8356 15.8891 17.0704 14.771C18.3688 13.5954 19 11.9075 19 9.61073V7.10809C19 4.99035 18.3537 3.314 17.0789 2.12558Z" fill="white"/>
<path d="M9.74881 3.9293C9.7489 3.9293 9.7489 3.9293 9.74909 3.9293C10.8788 3.9293 11.9409 4.34931 12.7398 5.11189C13.5388 5.87455 13.9788 6.88858 13.9787 7.96713C13.9787 8.33673 14.2925 8.63637 14.6797 8.63637C14.6798 8.63637 14.6798 8.63637 14.6798 8.63637C15.067 8.63637 15.3809 8.33681 15.3809 7.96722C15.381 6.53112 14.7952 5.18095 13.7314 4.1655C12.6677 3.15004 11.2535 2.59091 9.74909 2.59091C9.74899 2.59091 9.74871 2.59091 9.74862 2.59091C9.36142 2.59091 9.04761 2.89055 9.04761 3.26015C9.0477 3.62966 9.36161 3.9293 9.74881 3.9293Z" fill="white"/>
<path d="M9.70351 6.43419C10.6138 6.43436 11.3546 7.14136 11.3547 8.01026C11.3548 8.35608 11.6484 8.63645 12.0108 8.63636C12.3731 8.63636 12.6667 8.35591 12.6667 8.01009C12.6664 6.4508 11.3373 5.18207 9.70368 5.18182H9.7036C9.34132 5.18182 9.04769 5.4621 9.04761 5.80792C9.04761 6.15374 9.34123 6.43419 9.70351 6.43419Z" fill="white"/>
<path d="M6.78974 7.2127C6.4932 7.40626 6.41714 7.79264 6.61983 8.0757C6.82253 8.35876 7.2274 8.43128 7.52394 8.2378C7.75717 8.08563 8.30341 7.72914 8.26508 7.01648C8.24079 6.58995 7.83774 5.98095 7.50391 5.54514C7.0156 4.90749 6.59477 4.52343 6.25573 4.40437C5.93915 4.29186 5.60809 4.28946 5.27105 4.39742C4.57293 4.62195 4.06606 5.0277 3.80534 5.5708C3.55148 6.0995 3.55711 6.7071 3.82174 7.32827C4.44674 8.79183 5.3217 10.0732 6.42815 11.1422C7.54224 12.1927 8.88452 13.0279 10.4184 13.6248C10.7503 13.7537 11.0787 13.8182 11.3943 13.8182C11.697 13.8182 11.988 13.7589 12.2591 13.6403C12.8281 13.3913 13.2531 12.9076 13.4886 12.2404C13.6013 11.9194 13.5988 11.6035 13.4819 11.3034C13.3563 10.9775 12.9539 10.5759 12.2859 10.1098C11.8293 9.79111 11.1913 9.40638 10.7427 9.38312C9.99766 9.34736 9.62453 9.86786 9.46511 10.0905C9.26233 10.3735 9.33822 10.7599 9.63476 10.9536C9.93139 11.1472 10.3361 11.0747 10.539 10.7916C10.6097 10.6929 10.6501 10.648 10.6733 10.6284C11.0385 10.74 12.0797 11.4703 12.2671 11.7501C12.2717 11.768 12.2728 11.7952 12.2554 11.8448C12.1734 12.0774 12.0133 12.3818 11.7171 12.5114C11.4397 12.6326 11.1244 12.5583 10.9091 12.4747C9.53467 11.9398 8.33472 11.1943 7.34805 10.264C6.36787 9.31697 5.58684 8.17157 5.02681 6.86009C4.93903 6.65411 4.86106 6.353 4.98812 6.08841C5.12386 5.80568 5.44287 5.65285 5.68572 5.57469C5.73758 5.55814 5.76612 5.55905 5.7859 5.5636C6.07914 5.74284 6.84369 6.73616 6.96078 7.08479C6.94014 7.10656 6.89322 7.14522 6.78974 7.2127Z" fill="white"/>
</svg>

<svg width="19" height="19" fill="none" xmlns="http://www.w3.org/2000/svg"><path d="M17.079 2.126C15.499.653 12.945-.06 9.487.004 6 .069 3.668.651 2.15 1.835.683 2.98 0 4.655 0 7.108v2.503c0 2.895 1.632 6.077 4.75 6.56.36.055.7-.178.758-.52a.632.632 0 00-.546-.72c-2.365-.366-3.641-3.014-3.641-5.32V7.108c0-3.516 1.37-5.721 8.192-5.849 3.092-.058 5.324.536 6.641 1.763 1.026.957 1.525 2.293 1.525 4.086v2.503c0 3.79-1.789 5.461-6.378 5.953H8.047a.678.678 0 00-.467.184l-2.293 2.18a.606.606 0 000 .888.676.676 0 00.467.184.676.676 0 00.467-.184l2.1-1.996h3.017a.683.683 0 00.073-.004c2.626-.277 4.425-.927 5.66-2.045C18.368 13.595 19 11.907 19 9.611V7.108c0-2.118-.646-3.794-1.921-4.982z" fill="#fff"/><path d="M9.749 3.93c1.13 0 2.192.42 2.99 1.182a3.92 3.92 0 011.24 2.855c0 .37.314.67.7.67.388 0 .702-.3.702-.67 0-1.436-.586-2.786-1.65-3.801A5.732 5.732 0 009.75 2.59c-.388 0-.701.3-.701.67 0 .369.314.668.7.668z" fill="#fff"/><path d="M9.704 6.434c.91 0 1.65.707 1.65 1.576 0 .346.294.626.657.626.362 0 .656-.28.656-.626 0-1.56-1.33-2.828-2.963-2.828-.363 0-.656.28-.656.626s.293.626.656.626zm-2.914.779a.604.604 0 00-.17.863.67.67 0 00.904.162c.233-.152.78-.509.741-1.222-.024-.426-.427-1.035-.761-1.47-.488-.639-.91-1.023-1.248-1.142a1.506 1.506 0 00-.985-.007c-.698.225-1.205.63-1.466 1.174-.254.529-.248 1.136.017 1.757a11.586 11.586 0 002.606 3.814c1.114 1.05 2.457 1.886 3.99 2.483.332.129.66.193.976.193.303 0 .594-.06.865-.178.57-.249.994-.732 1.23-1.4a1.32 1.32 0 00-.007-.937c-.126-.326-.528-.727-1.196-1.193-.457-.319-1.095-.704-1.543-.727-.745-.036-1.118.485-1.278.708a.604.604 0 00.17.863.67.67 0 00.904-.162.984.984 0 01.134-.164c.366.112 1.407.842 1.594 1.122.005.018.006.045-.012.095-.082.232-.242.537-.538.666-.277.122-.593.047-.808-.036-1.374-.535-2.574-1.28-3.561-2.211A10.344 10.344 0 015.027 6.86c-.088-.206-.166-.507-.039-.772.136-.282.455-.435.698-.513a.185.185 0 01.1-.011c.293.179 1.058 1.172 1.175 1.52a.975.975 0 01-.171.129z" fill="#fff"/></svg>
